src/system/assets/img/brand/makesense_logo.svg

<?xml version="1.0" encoding="UTF-8"?>
<svg width="156px" height="26px" viewBox="0 0 156 26" version="1.1" xmlns="http://www.w3.org/2000/svg" xmlns:xlink="http://www.w3.org/1999/xlink">
    <!-- Generator: Sketch 57.1 (83088) - https://sketch.com -->
    <title>logotype</title>
    <desc>Created with Sketch.</desc>
    <g id="Factory---Desktop" stroke="none" stroke-width="1" fill="none" fill-rule="evenodd">
        <g id="Splash" transform="translate(-742.000000, -474.000000)" fill-rule="nonzero">
            <g id="Group-2" transform="translate(685.000000, 416.000000)">
                <g id="logotype" transform="translate(57.000000, 58.000000)">
                    <path d="M81,23.500101 C81,24.8806995 79.8806995,26 78.500101,26 L73.499899,26 C72.1193005,26 71,24.8806995 71,23.500101 C71,22.1193005 72.1193005,21 73.499899,21 L78.500101,21 C79.8806995,21 81,22.1193005 81,23.500101" id="Fill-1" fill="#FFF30D"></path>
                    <path d="M9.32498064,5 C11.7078289,5 13.1978426,5.98457359 13.79401,7.95372076 C14.0321936,7.03059159 14.5678539,6.30767925 15.4030144,5.78435675 C16.2365559,5.26166125 17.2000158,5 18.292787,5 C21.4308615,5 23,6.64144363 23,9.92286793 L23,20.5387489 C23,20.84618 22.910757,21 22.7320687,21 L18.203544,21 C18.0250581,21 17.9348033,20.8875609 17.9348033,20.6616377 L17.9348033,11.8621289 C17.9348033,10.2610212 17.3088882,9.46182583 16.0578676,9.46182583 C15.5612638,9.46182583 15.1241553,9.60059825 14.7473517,9.87709811 C14.3697385,10.153807 14.0321936,10.8353384 14.0321936,11.351973 L14.0321936,20.5387489 C14.0321936,20.84618 13.9427483,21 13.7642623,21 L9.23573766,21 C9.05704934,21 8.9669969,20.8875609 8.9669969,20.6616377 L8.9669969,11.8621289 C8.9669969,10.2610212 8.34189132,9.46182583 7.09006124,9.46182583 C6.59426691,9.46182583 6.14683783,9.610212 5.74979763,9.90782032 C5.35174562,10.2056376 5.06438727,10.848505 5.06438727,11.3569889 L5.06438727,20.6616377 C5.06438727,20.8875609 4.99457134,21 4.85595129,21 L0.238183642,21 C0.0791247272,21 0,20.8568387 0,20.5696801 L0,5.83096255 C0,5.5849759 0.0688041106,5.46187808 0.208233617,5.46187808 L4.64751531,5.46187808 C4.82620363,5.46187808 4.91544661,5.5849759 4.91544661,5.83096255 L4.91544661,7.95372076 C5.23356444,7.05086406 5.78460442,6.33317659 6.56876892,5.80024034 C7.35374287,5.26688611 8.27207539,5 9.32498064,5" id="Fill-3" fill="#FFFFFF"></path>
                    <path d="M36.2330479,20.5055202 L36.2330479,18.5596989 C35.9948521,19.3214539 35.4583549,19.9288018 34.6239612,20.3821624 C33.8686963,20.7929353 33.0045534,21 32.031735,21 C29.9855175,21 28.317742,20.2894343 27.0265871,18.868303 C25.6753266,17.4064721 25,15.4396717 25,12.9683214 C25,10.6830567 25.6854454,8.76912386 27.0563362,7.22337608 C28.3865496,5.74140508 30.0152667,5 31.9424874,5 C32.8958779,5 33.7598184,5.25741484 34.5347137,5.77224451 C35.2499083,6.22539533 35.7262999,6.78092466 35.9651029,7.44030105 L35.9651029,5.5563685 C35.9651029,5.30944326 36.0442317,5.18608554 36.2032987,5.18608554 L40.7915534,5.18608554 C40.9301805,5.18608554 41,5.27776467 41,5.46364042 L41,20.351323 C41,20.6395773 40.9200617,20.7832848 40.7618042,20.7832848 L36.5307421,20.7832848 C36.3326166,20.7832848 36.2330479,20.6905567 36.2330479,20.5055202 M33.0292535,10 C32.0981843,10 31.3605918,10.2862503 30.8162744,10.8570042 C30.27115,11.4287285 30,12.1619174 30,13.0573471 C30,13.9145454 30.2915266,14.6201766 30.8755884,15.1715238 C31.4598521,15.7244235 32.1778749,16 33.0292535,16 C33.8610625,16 34.5639543,15.7193777 35.137727,15.1575509 C35.7127102,14.59553 36,13.876314 36,13.0004852 C36,12.0862309 35.7169469,11.3569234 35.1530599,10.8146974 C34.5883658,10.2715011 33.8804304,10 33.0292535,10" id="Fill-5" fill="#FFFFFF"></path>
                    <path d="M49.2980985,0.405878971 L49.2980985,11.5811082 C50.2738969,10.2298024 52.0146704,8.20273774 53.8845626,5.49991426 C53.9673256,5.33341067 54.0917875,5.25058255 54.2590067,5.25058255 L59.3321001,5.25058255 C59.6443132,5.25058255 59.6754287,5.43742245 59.4254465,5.81152593 L54.1370849,11.7840477 L59.9201192,20.6250492 C60.0864917,20.8752282 59.9929336,21 59.6398682,21 L54.1593102,21 C53.9726173,21 53.7956613,20.8546801 53.6292887,20.5636166 L51.034427,15.2355018 L49.2980985,17.2269779 L49.2980985,20.6570365 C49.2980985,20.8858201 49.2144889,21 49.048963,21 L44.2499822,21 C44.0825513,21 44,20.8546801 44,20.5636166 L44,0.405878971 C44,0.136210949 44.0728145,0 44.21802,0 L49.0178475,0 C49.204752,0 49.2980985,0.136210949 49.2980985,0.405878971" id="Fill-7" fill="#FFFFFF"></path>
                    <path d="M66.0670343,5 C68.0099315,5 69.6359229,5.61089093 70.9441751,6.83104156 C72.3143083,8.11215894 73,9.78313729 73,11.8439766 C73,12.6657024 72.938744,13.3461239 72.8151904,13.8860569 C72.7539344,14.1258459 72.5499562,14.2459443 72.2024225,14.2459443 L63.0304891,14.2459443 C63.050491,15.0462603 63.3473949,15.6871249 63.9199506,16.1679262 C64.4916728,16.647708 65.2386204,16.927054 66.1589182,16.927054 C67.2640257,16.927054 68.4906033,16.7137723 69.2963066,16.0060279 C69.4907005,15.8457607 69.6148792,15.8302642 69.8390677,16.059858 C70.7522815,17.1670469 71.1944078,17.5483439 71.7882155,18.4489799 C71.9519814,18.6889727 71.9003098,18.9193822 71.6350756,19.1395965 C71.1025239,19.5998037 70.2393149,20.0899846 69.3190171,20.4300934 C68.2349534,20.8097593 67.151098,21 66.0670343,21 C63.6949287,21 61.7730752,20.2896048 60.3002236,18.8688144 C58.7661162,17.3880768 58,15.3967682 58,12.8944806 C58,10.5732582 58.7302793,8.67778358 60.1935466,7.20642547 C61.6549387,5.73506735 63.6136708,5 66.0670343,5 M63,12 L68,12 C67.8808423,10.0013585 67.0431218,9 65.4850299,9 C64.024997,9 63.1967207,10.0013585 63,12" id="Fill-9" fill="#FFFFFF"></path>
                    <path d="M79.0455225,17.5209838 C78.9621397,17.283218 78.9933819,17.1337306 79.1386157,17.0745417 L82.5267008,15.8255139 C82.6713013,15.7857179 82.7643945,15.8255139 82.8059803,15.9444978 C82.9721126,16.4004343 83.2923447,16.7824352 83.7696319,17.0896924 C84.2460748,17.3969496 84.7641035,17.5498712 85.323718,17.5498712 C86.6705082,17.5498712 87.3439033,17.1543356 87.3439033,16.3612444 C87.3439033,15.9638907 87.1309078,15.6372405 86.7068167,15.3790718 C86.2818812,15.121913 85.4790844,14.8544518 84.2984265,14.57588 C82.6402702,14.1803444 81.439136,13.6838038 80.693124,13.0894904 C79.7607145,12.3355891 79.2939821,11.2651381 79.2939821,9.87712742 C79.2939821,8.33033685 79.9158698,7.13160951 81.158801,6.27831928 C82.4023654,5.42684713 84.112029,5 86.2873696,5 C89.6847429,5 91.7260378,6.07045099 92.4101988,8.21155497 C92.4509402,8.44911873 92.3985885,8.58931367 92.253988,8.6283016 L88.8048963,9.787839 C88.6594514,9.84743195 88.5450375,9.81773648 88.4622881,9.69875259 C87.861932,8.80647442 87.0741231,8.36084036 86.1009722,8.36084036 C84.9397351,8.36084036 84.3604886,8.70809555 84.3604886,9.40159588 C84.3604886,9.69875259 84.5884719,9.94156861 85.043383,10.1300439 C85.4993496,10.3185193 86.400728,10.5417403 87.7483626,10.7991011 C91.2489616,11.4934094 93,13.0494924 93,15.4681582 C93,17.1543356 92.3675575,18.4972981 91.1043611,19.4982577 C89.8403204,20.4992172 88.089071,21 85.8516682,21 C82.4122869,21 80.1430088,19.8402606 79.0455225,17.5209838" id="Fill-11" fill="#FFFFFF"></path>
                    <path d="M118.999786,11.4922932 C118.999786,10.1379905 118.3827,9.46167511 117.14713,9.46167511 C116.12691,9.46167511 115.411738,9.95344584 115.000214,10.9380323 L115.000214,20.6618423 C115.000214,20.8875594 114.930694,21 114.793653,21 L110.235128,21 C110.078309,21 110,20.8568368 110,20.5696745 L110,5.83076441 C110,5.58477454 110.06892,5.46188411 110.205762,5.46188411 L114.529359,5.46188411 C114.745109,5.46188411 114.852585,5.62615602 114.852585,5.95365484 L114.852585,7.95355034 C115.147244,7.05068185 115.700404,6.333194 116.514861,5.79920581 C117.32832,5.2668896 118.303991,5 119.441475,5 C122.480558,5 124,6.69246042 124,10.0765453 L124,20.5389519 C124,20.846387 123.901914,21 123.705541,21 L119.26428,21 C119.087884,21 118.999786,20.8875594 118.999786,20.6618423 L118.999786,11.4922932 Z" id="Fill-13" fill="#FFFFFF"></path>
                    <path d="M126.045669,17.5211419 C125.962076,17.2833731 125.993317,17.1338838 126.138761,17.0746941 L129.526599,15.8256505 C129.671409,15.7858541 129.764291,15.8256505 129.806087,15.9446359 C129.972007,16.4005783 130.292235,16.782584 130.769517,17.0898451 C131.245955,17.3971062 131.763979,17.5500297 132.323798,17.5500297 C133.670363,17.5500297 134.343751,17.1544891 134.343751,16.3613878 C134.343751,15.9640291 134.130969,15.6371728 133.706883,15.3792028 C133.28174,15.1220408 132.479163,14.8545762 131.298307,14.5760009 C129.640168,14.1804603 128.439046,13.6839135 127.693042,13.0895926 C126.760642,12.3364898 126.294126,11.2652172 126.294126,9.877189 C126.294126,8.3303789 126.915796,7.13163643 128.158714,6.27833542 C129.402476,5.42685252 131.111911,5 133.286384,5 C136.684778,5 138.726051,6.0704645 139.410205,8.21159552 C139.450946,8.44916228 139.398595,8.58935899 139.253785,8.62834741 L135.804096,9.78789945 C135.659286,9.84749315 135.544873,9.81779731 135.462336,9.69881191 C134.861775,8.80652248 134.073974,8.36088279 133.100833,8.36088279 C131.939608,8.36088279 131.360368,8.70814237 131.360368,9.40165145 C131.360368,9.69881191 131.588349,9.941631 132.043466,10.1301087 C132.499428,10.3185864 133.400797,10.5418103 134.748418,10.7991743 C138.24898,11.4934914 140,13.0495941 140,15.4690984 C140,17.1544891 139.367353,18.4974685 138.10417,19.4984407 C136.840142,20.4994129 135.088911,21 132.851532,21 C129.412187,21 127.142932,19.840448 126.045669,17.5211419" id="Fill-15" fill="#FFFFFF"></path>
                    <path d="M106.945009,6.83115212 C105.635923,5.61106368 104.009932,5 102.067868,5 C99.6134624,5 97.6555637,5.73604934 96.1933382,7.20651689 C94.7311127,8.67759612 94,10.5737897 94,12.8950977 C94,15.3970538 94.7671579,17.3884648 96.301057,18.869127 C97.7730752,20.289641 99.6949287,21 102.067868,21 C103.151931,21 104.234953,20.8089534 105.318809,20.4293069 C105.823233,20.2433576 106.30828,20.0113287 106.732905,19.7644158 C107.154196,19.5407465 107.553401,19.2605992 107.929271,18.9221388 C108.099912,18.7319078 108.132207,18.5810279 108.023655,18.471538 L105.446946,16.0354389 C105.33131,15.9436876 105.230467,15.9455227 105.144625,16.0405362 C105.102538,16.0860041 105.05795,16.1331031 105.012529,16.180406 C104.205992,16.8854638 102.816482,16.9470391 102.544997,16.9470391 C101.381343,16.9470391 100.492506,16.6473182 99.920784,16.1673569 C99.3482283,15.686784 99.050491,15.0465638 99.0304891,14.245473 L108.202214,14.245473 C108.549956,14.245473 108.754976,14.1264002 108.816024,13.885604 C108.938536,13.3459024 109,12.6655155 109,11.8446472 C109,9.78391294 108.314308,8.1122042 106.945009,6.83115212 Z M99,12 C99.1975324,10.0006394 100.025842,9 101.486135,9 C103.043284,9 103.881842,10.0006394 104,12 L99,12 Z" id="Fill-17" fill="#FFFFFF"></path>
                    <path d="M153.945009,6.83112878 C152.636131,5.61105589 151.009932,5 149.067868,5 C146.613462,5 144.655772,5.73603996 143.193338,7.20628488 C141.731321,8.67754925 141,10.5737187 141,12.8949971 C141,15.3969213 141.767158,17.388307 143.301265,18.8689502 C144.773075,20.2894462 146.694929,21 149.067868,21 C150.151931,21 151.234953,20.8087519 152.319017,20.4291103 C152.823233,20.2431633 153.308488,20.0111374 153.733113,19.7642276 C154.154404,19.5405612 154.553609,19.2604175 154.929271,18.9219614 C155.099912,18.7317328 155.132207,18.5808548 155.023863,18.4713663 L152.446946,16.0352983 C152.33131,15.9435482 152.230467,15.9453832 152.144625,16.0403955 C152.102746,16.0858628 152.05795,16.1329612 152.012737,16.1800596 C151.205992,16.8853123 149.816691,16.9468869 149.545206,16.9468869 C148.381551,16.9468869 147.492715,16.6471698 146.920992,16.1672146 C146.348228,15.6866478 146.050491,15.0464358 146.030489,14.2453551 L155.202422,14.2453551 C155.549956,14.2453551 155.754976,14.1252644 155.816024,13.8854907 C155.938744,13.3455922 156,12.6654178 156,11.84456 C156,9.78364809 155.314517,8.11216454 153.945009,6.83112878 Z M146,12 C146.197532,10.0006394 147.026043,9 148.486135,9 C150.043485,9 150.882043,10.0006394 151,12 L146,12 Z" id="Fill-19" fill="#FFFFFF"></path>
                </g>
            </g>
        </g>
    </g>
</svg>

<svg width="156" height="26" version="1.1" xmlns="http://www.w3.org/2000/svg"><defs/><g fill-rule="nonzero" stroke="none" stroke-width="1" fill="none"><path fill="var(--logo-bean)" d="M81 23.5a2.5 2.5 0 01-2.5 2.5h-5a2.5 2.5 0 010-5h5a2.5 2.5 0 012.5 2.5" /><path fill="var(--logo-text)" d="M9.325 5c2.383 0 3.873.985 4.469 2.954.238-.923.774-1.646 1.609-2.17C16.237 5.262 17.2 5 18.293 5 21.43 5 23 6.641 23 9.923v10.616c0 .307-.09.461-.268.461h-4.528c-.179 0-.27-.112-.27-.338v-8.8c0-1.601-.625-2.4-1.876-2.4-.497 0-.934.139-1.31.415-.378.277-.716.958-.716 1.475v9.187c0 .307-.09.461-.268.461H9.236c-.179 0-.269-.112-.269-.338v-8.8c0-1.601-.625-2.4-1.877-2.4a2.18 2.18 0 00-1.34.446c-.398.298-.686.94-.686 1.449v9.305c0 .226-.07.338-.208.338H.238C.08 21 0 20.857 0 20.57V5.83c0-.246.069-.37.208-.37h4.44c.178 0 .267.124.267.37v2.123c.319-.903.87-1.62 1.654-2.154.785-.533 1.703-.8 2.756-.8M36.233 20.506V18.56c-.238.761-.775 1.369-1.609 1.822-.755.41-1.62.618-2.592.618-2.046 0-3.714-.71-5.005-2.132C25.675 17.406 25 15.44 25 12.968c0-2.285.685-4.199 2.056-5.745C28.386 5.741 30.016 5 31.942 5c.954 0 1.818.257 2.593.772.715.453 1.191 1.009 1.43 1.668V5.556c0-.247.08-.37.238-.37h4.589c.138 0 .208.092.208.278V20.35c0 .289-.08.432-.238.432H36.53c-.198 0-.298-.092-.298-.277M33.029 10c-.93 0-1.668.286-2.213.857-.545.572-.816 1.305-.816 2.2 0 .858.292 1.563.876 2.115.584.552 1.302.828 2.153.828.832 0 1.535-.28 2.109-.842.575-.562.862-1.282.862-2.158 0-.914-.283-1.643-.847-2.185-.565-.543-1.273-.815-2.124-.815M49.298.406V11.58c.976-1.351 2.717-3.378 4.587-6.081.082-.167.207-.25.374-.25h5.073c.312 0 .343.187.093.562l-5.288 5.972 5.783 8.841c.166.25.073.375-.28.375h-5.48c-.187 0-.364-.145-.53-.436l-2.596-5.328-1.736 1.991v3.43c0 .229-.084.343-.249.343H44.25c-.167 0-.25-.145-.25-.436V.406c0-.27.073-.406.218-.406h4.8c.187 0 .28.136.28.406" /><path d="M66.067 5c1.943 0 3.569.61 4.877 1.831C72.314 8.112 73 9.783 73 11.844c0 .822-.061 1.502-.185 2.042-.061.24-.265.36-.613.36H63.03c.02.8.317 1.441.89 1.922.572.48 1.319.76 2.239.76 1.105 0 2.332-.214 3.137-.922.195-.16.319-.176.543.054.913 1.107 1.355 1.488 1.95 2.389.163.24.111.47-.154.69-.532.46-1.396.951-2.316 1.291a9.784 9.784 0 01-3.252.57c-2.372 0-4.294-.71-5.767-2.131-1.534-1.48-2.3-3.472-2.3-5.975 0-2.32.73-4.216 2.194-5.688C61.654 5.736 63.614 5 66.067 5M63 12h5c-.12-1.999-.957-3-2.515-3-1.46 0-2.288 1.001-2.485 3M79.046 17.521c-.084-.238-.053-.387.093-.446l3.388-1.25c.144-.04.237 0 .279.12.166.455.486.837.964 1.145.476.307.994.46 1.554.46 1.347 0 2.02-.396 2.02-1.189 0-.397-.213-.724-.637-.982-.425-.257-1.228-.525-2.409-.803-1.658-.396-2.859-.892-3.605-1.487-.932-.753-1.399-1.824-1.399-3.212 0-1.547.622-2.745 1.865-3.599C82.402 5.427 84.112 5 86.287 5c3.398 0 5.439 1.07 6.123 3.212.04.237-.011.377-.156.416l-3.45 1.16c-.145.06-.259.03-.342-.09-.6-.892-1.388-1.337-2.361-1.337-1.161 0-1.74.347-1.74 1.04 0 .298.227.54.682.729.456.189 1.358.412 2.705.67C91.25 11.492 93 13.05 93 15.467c0 1.686-.632 3.03-1.896 4.03C89.84 20.5 88.09 21 85.852 21c-3.44 0-5.709-1.16-6.806-3.479M119 11.492c0-1.354-.617-2.03-1.853-2.03-1.02 0-1.735.491-2.147 1.476v9.724c0 .226-.07.338-.206.338h-4.559c-.157 0-.235-.143-.235-.43V5.83c0-.245.069-.368.206-.368h4.323c.216 0 .324.164.324.492v2c.294-.903.847-1.62 1.662-2.155.813-.532 1.789-.799 2.926-.799 3.04 0 4.559 1.692 4.559 5.077v10.462c0 .307-.098.461-.294.461h-4.442c-.176 0-.264-.112-.264-.338v-9.17zM126.046 17.521c-.084-.238-.053-.387.093-.446l3.388-1.25c.144-.04.237 0 .28.12.165.456.485.838.963 1.145.476.307.994.46 1.554.46 1.346 0 2.02-.396 2.02-1.189 0-.397-.213-.724-.637-.982-.425-.257-1.228-.524-2.409-.803-1.658-.396-2.859-.892-3.605-1.486-.932-.754-1.399-1.825-1.399-3.213 0-1.547.622-2.745 1.865-3.599C129.402 5.427 131.112 5 133.286 5c3.399 0 5.44 1.07 6.124 3.212.04.237-.011.377-.156.416l-3.45 1.16c-.145.06-.26.03-.342-.09-.6-.891-1.388-1.337-2.361-1.337-1.161 0-1.74.347-1.74 1.04 0 .298.227.54.682.73.456.188 1.358.41 2.705.668 3.501.694 5.252 2.25 5.252 4.67 0 1.685-.633 3.028-1.896 4.03-1.264 1-3.015 1.501-5.252 1.501-3.44 0-5.71-1.16-6.806-3.479M106.945 6.831C105.635 5.611 104.01 5 102.068 5c-2.455 0-4.412.736-5.875 2.207C94.731 8.677 94 10.574 94 12.895c0 2.502.767 4.493 2.301 5.974C97.773 20.29 99.695 21 102.068 21a9.779 9.779 0 003.25-.57c.505-.187.99-.419 1.415-.666.421-.223.82-.503 1.196-.842.17-.19.203-.341.095-.45l-2.577-2.437c-.116-.091-.217-.09-.302.006l-.132.14c-.807.704-2.197.766-2.468.766-1.164 0-2.052-.3-2.624-.78-.573-.48-.87-1.12-.89-1.922h9.171c.348 0 .553-.119.614-.36.123-.54.184-1.22.184-2.04 0-2.061-.686-3.733-2.055-5.014zM99 12c.198-2 1.026-3 2.486-3 1.557 0 2.396 1 2.514 3h-5zM153.945 6.831C152.636 5.611 151.01 5 149.068 5c-2.455 0-4.412.736-5.875 2.206-1.462 1.472-2.193 3.368-2.193 5.689 0 2.502.767 4.493 2.301 5.974 1.472 1.42 3.394 2.131 5.767 2.131a9.781 9.781 0 003.251-.57c.504-.187.99-.419 1.414-.666a5.96 5.96 0 001.196-.842c.17-.19.203-.341.095-.45l-2.577-2.437c-.116-.091-.217-.09-.302.005a9.43 9.43 0 01-.132.14c-.807.705-2.196.767-2.468.767-1.163 0-2.052-.3-2.624-.78-.573-.48-.87-1.12-.89-1.922h9.171c.348 0 .553-.12.614-.36.123-.54.184-1.22.184-2.04 0-2.061-.685-3.733-2.055-5.014zM146 12c.198-2 1.026-3 2.486-3 1.557 0 2.396 1 2.514 3h-5z" fill="var(--logo-text)"/></g></svg>
